X:1038
T:September Reel, The
R:reel
C:Michael McGoldrick
Z:id:hn-reel-1038
M:C|
L:1/8
K:Bm
FBBA BAFE | FDBA FEED | F3D EFDE | FDAF FEED |
FBBA BAFE | FDBA FEFA | B2BA FBAF | EFDE FDD2 :|
|: ~F3E FABd | ~B3A BdBA | ~B3d ~B3d | AFDE FEED |
F2FE FABd | ~B3A Bded |1 f2fe edBA | FBBA FEDE :|2 faef dBBA | FBBA B4 ||

